X:29
T:Europa
M:2/4
L:1/8
B:Thompson's Compleat Collection of 200 Favourite Country Dances, vol. 3 (London, 1773)
Z:Transcribed and edited by Flynn Titford-Mock, 2007
Z:abc's:AK/Fiddler's Companion
K:G
b | g d2 c | B G2 D | GB A/B/c/A/ | B G2 d | e c2 e | d B2 d | gdcB | B2 A :|
|: G | F A2 c | B G2 c | B d2 =f | e c2 B | A a2 g | f2 gc | BGAF | G2 G :|

